X:222
T:Miss Smiths Waltz (Unedited)
O:No 222 Page 109 William Clarke of Feltwell
M:4/4
L:1/8
N:It is probably easier to present this as it appears in the manuscript, and leave interpretations to others.
N:The common time signature is wrong :it should be 3/8.
N:There is an undecipherable mess at the beginning of bar C4.
N:The instruction "each part to be played twice" is written at the end.
K:C
dede|gfd|fec|{e}d2B|B dede|gfd|fec|B BcBc|B2::A/B/A/B/|dcA|cBG|BAF|zGBd|Acd|GBd|B2z2|GBd|GBd|GBd|B2::z|FAc|EAc|DFA|*F2|A/B/A/B/|dcA|cBG|F F/G/F/G/::dz2|FAc|EAc|DFA:|

